icons/svg/seamark/harbour_default.svg

<?xml version="1.0" encoding="UTF-8" standalone="no"?>
<svg
   xmlns:dc="http://purl.org/dc/elements/1.1/"
   xmlns:cc="http://creativecommons.org/ns#"
   xmlns:rdf="http://www.w3.org/1999/02/22-rdf-syntax-ns#"
   xmlns:svg="http://www.w3.org/2000/svg"
   xmlns="http://www.w3.org/2000/svg"
   xmlns:sodipodi="http://sodipodi.sourceforge.net/DTD/sodipodi-0.dtd"
   xmlns:inkscape="http://www.inkscape.org/namespaces/inkscape"
   width="580"
   height="580"
   id="svg2"
   version="1.1"
   inkscape:version="0.48.4 r9939"
   sodipodi:docname="harbour_default.svg">
  <defs
     id="defs13">
    <inkscape:path-effect
       effect="gears"
       id="path-effect3774"
       is_visible="true"
       teeth="6"
       phi="-1.2" />
    <inkscape:path-effect
       effect="bend_path"
       id="path-effect3772"
       is_visible="false"
       bendpath="m 95.790098,316.51174 c 144.429032,-206.42506 223.313032,-11.7428 339.548092,0"
       prop_scale="1.19"
       scale_y_rel="false"
       vertical="false"
       bendpath-nodetypes="cc" />
  </defs>
  <sodipodi:namedview
     pagecolor="#ffffff"
     bordercolor="#666666"
     borderopacity="1"
     objecttolerance="10"
     gridtolerance="10"
     guidetolerance="10"
     inkscape:pageopacity="0"
     inkscape:pageshadow="2"
     inkscape:window-width="1920"
     inkscape:window-height="1004"
     id="namedview11"
     showgrid="false"
     inkscape:zoom="0.2877193"
     inkscape:cx="573.95635"
     inkscape:cy="512.34077"
     inkscape:window-x="1680"
     inkscape:window-y="0"
     inkscape:window-maximized="1"
     inkscape:current-layer="svg2" />
  <metadata
     id="metadata2975">image/svg+xmlen<rdf:RDF>
  <cc:Work
     rdf:about="">
    <dc:format>image/svg+xml</dc:format>
    <dc:type
       rdf:resource="http://purl.org/dc/dcmitype/StillImage" />
    <dc:title />
  </cc:Work>
</rdf:RDF>
</metadata>
  <path
     style="font-size:medium;font-style:normal;font-variant:normal;font-weight:normal;font-stretch:normal;text-indent:0;text-align:start;text-decoration:none;line-height:normal;letter-spacing:normal;word-spacing:normal;text-transform:none;direction:ltr;block-progression:tb;writing-mode:lr-tb;text-anchor:start;baseline-shift:baseline;color:#000000;fill:#930093;fill-opacity:1;stroke:none;stroke-width:1;marker:none;visibility:visible;display:inline;overflow:visible;enable-background:accumulate;font-family:Sans;-inkscape-font-specification:Sans;fill-rule:nonzero;stroke-linecap:butt;stroke-linejoin:miter;stroke-miterlimit:4;stroke-opacity:1;stroke-dasharray:none;stroke-dashoffset:0"
     d="m 289.98499,63.254955 c -38.32577,0 -69.76076,31.434969 -69.76076,69.760805 0,25.65015 14.09012,48.19808 34.89534,60.31995 l 0,44.33621 -52.34302,0 0,34.89534 52.34302,0 0,157.11868 c -42.29339,-2.98796 -88.96921,-58.0604 -111.07953,-109.49609 17.53066,0.95386 34.74596,-0.38839 34.74596,-0.38839 0,0 -33.7479,-50.90056 -81.173497,-63.96484 -29.617008,25.58784 -34.357574,98.11328 -34.357574,98.11328 0,0 11.149541,-5.51979 24.647825,-15.80449 22.789266,65.23648 82.173946,121.75427 153.981686,137.51992 30.83797,6.76762 48.10055,41.07971 48.10055,41.07971 0,0 17.2926,-34.31209 48.13053,-41.0797 71.44559,-15.68613 130.5822,-71.71499 153.62316,-136.534 13.82086,10.53224 25.00639,14.81857 25.00639,14.81857 0,-20.93075 -2.36973,-63.38498 -32.6846,-98.94982 -47.42545,13.06429 -82.87635,64.80138 -82.87635,64.80138 0,0 17.22109,1.34045 34.74591,0.38839 -22.11351,51.42468 -68.76132,106.50848 -111.0497,109.49609 l 0,-157.11868 52.31319,0 0,-34.89534 -52.31319,0 0,-44.33621 c 20.79294,-12.12501 34.89535,-34.679 34.89535,-60.31995 0,-38.325846 -31.4648,-69.760815 -69.79069,-69.760815 z m 0,34.86547 c 19.47294,0 34.89534,15.422515 34.89534,34.895335 0,19.47282 -15.4224,34.89534 -34.89534,34.89534 -19.47275,0 -34.86542,-15.42252 -34.86542,-34.89534 0,-19.47282 15.39267,-34.895335 34.86542,-34.895335 z"
     id="circle3"
     inkscape:connector-curvature="0" />
</svg>

<svg width="580" height="580" viewBox="0 0 580 580" fill="none" xmlns="http://www.w3.org/2000/svg">
<path d="M289.985 63.2549C251.659 63.2549 220.224 94.6898 220.224 133.016C220.224 158.666 234.314 181.214 255.12 193.336V237.672H202.777V272.567H255.12V429.686C212.826 426.698 166.15 371.625 144.04 320.19C161.571 321.144 178.786 319.801 178.786 319.801C178.786 319.801 145.038 268.901 97.6125 255.837C67.9954 281.424 63.2549 353.95 63.2549 353.95C63.2549 353.95 74.4044 348.43 87.9027 338.145C110.692 403.382 170.077 459.9 241.884 475.665C272.722 482.433 289.985 516.745 289.985 516.745C289.985 516.745 307.278 482.433 338.115 475.665C409.561 459.979 468.698 403.95 491.739 339.131C505.56 349.664 516.745 353.95 516.745 353.95C516.745 333.019 514.375 290.565 484.06 255C436.635 268.064 401.184 319.801 401.184 319.801C401.184 319.801 418.405 321.142 435.93 320.19C413.816 371.614 367.169 426.698 324.88 429.686V272.567H377.193V237.672H324.88V193.336C345.673 181.211 359.776 158.657 359.776 133.016C359.776 94.6899 328.311 63.2549 289.985 63.2549V63.2549ZM289.985 98.1203C309.458 98.1203 324.88 113.543 324.88 133.016C324.88 152.489 309.458 167.911 289.985 167.911C270.512 167.911 255.12 152.489 255.12 133.016C255.12 113.543 270.512 98.1203 289.985 98.1203V98.1203Z" fill="#930093"/>
</svg>
